coffe/node.svg

<svg width="120" height="34" viewBox="0 0 120 34" fill="none" xmlns="http://www.w3.org/2000/svg">
<path d="M34.1837 12.3316C34.338 12.2422 34.5133 12.1951 34.6917 12.1951C34.87 12.1951 35.0453 12.2422 35.1997 12.3316L43.6177 17.1885C43.9317 17.3705 44.1257 17.7066 44.1257 18.0696V27.7916C44.1257 28.1546 43.9317 28.4907 43.6177 28.6727L35.2007 33.5335C35.046 33.6225 34.8707 33.6693 34.6922 33.6693C34.5137 33.6693 34.3384 33.6225 34.1837 33.5335L25.7687 28.6727C25.6143 28.5831 25.4862 28.4545 25.397 28.2999C25.3079 28.1453 25.2609 27.97 25.2607 27.7916V18.0687C25.2607 17.7067 25.4547 17.3705 25.7687 17.1885L34.1837 12.3316Z" fill="#DCA780"/>
<path d="M110.271 33.6736C109.981 33.6736 109.693 33.5978 109.439 33.4498L106.789 31.8817C106.393 31.6607 106.586 31.5817 106.717 31.5367C107.245 31.3527 107.352 31.3098 107.915 30.9918C107.974 30.9588 108.051 30.9707 108.112 31.0067L110.147 32.2156C110.185 32.2359 110.227 32.2464 110.27 32.2464C110.313 32.2464 110.355 32.2359 110.393 32.2156L118.33 27.6346C118.367 27.6125 118.398 27.5812 118.419 27.5435C118.441 27.5058 118.452 27.4631 118.452 27.4197V18.2596C118.452 18.2156 118.44 18.1725 118.419 18.1341C118.397 18.0957 118.366 18.0634 118.329 18.0406L110.395 13.4637C110.357 13.443 110.315 13.4322 110.272 13.4322C110.229 13.4322 110.187 13.443 110.15 13.4637L102.217 18.0416C102.179 18.0643 102.148 18.0964 102.126 18.1346C102.104 18.1727 102.092 18.2156 102.092 18.2596V27.4197C102.092 27.5077 102.141 27.5907 102.217 27.6317L104.391 28.8887C105.571 29.4777 106.294 28.7838 106.294 28.0858V19.0406C106.294 18.9136 106.397 18.8126 106.524 18.8126H107.531C107.656 18.8126 107.76 18.9136 107.76 19.0406V28.0858C107.76 29.6598 106.903 30.5626 105.41 30.5626C104.951 30.5626 104.59 30.5627 103.582 30.0667L101.501 28.8687C101.248 28.7212 101.037 28.5097 100.891 28.2557C100.745 28.0016 100.669 27.7137 100.669 27.4207V18.2606C100.669 17.6656 100.986 17.1108 101.501 16.8148L109.438 12.2276C109.693 12.0883 109.98 12.0154 110.271 12.0154C110.562 12.0154 110.849 12.0883 111.105 12.2276L119.042 16.8148C119.556 17.1118 119.875 17.6666 119.875 18.2606V27.4207C119.874 27.7138 119.797 28.0014 119.651 28.2554C119.505 28.5094 119.295 28.721 119.042 28.8687L111.105 33.4507C110.851 33.5977 110.564 33.6746 110.271 33.6736Z" fill="#DCA780"/>
<path d="M93.9277 21.3548C94.2407 21.1718 94.4337 20.8377 94.4337 20.4747V18.1207C94.4337 17.7587 94.2417 17.4248 93.9277 17.2418L85.5637 12.3858C85.409 12.2959 85.2334 12.2482 85.0544 12.2479C84.8755 12.2475 84.6997 12.2943 84.5447 12.3836L76.1287 17.2427C75.9743 17.3321 75.8462 17.4604 75.757 17.6148C75.6679 17.7692 75.6208 17.9443 75.6207 18.1226V27.8387C75.6207 28.2037 75.8166 28.5417 76.1346 28.7227L84.4977 33.4876C84.8057 33.6646 85.1837 33.6657 85.4947 33.4937L90.5527 30.6817C90.6314 30.638 90.6971 30.5741 90.743 30.4966C90.789 30.4192 90.8135 30.3311 90.8141 30.241C90.8148 30.151 90.7914 30.0623 90.7465 29.9842C90.7016 29.9061 90.6368 29.8414 90.5587 29.7967L82.0906 24.9366C82.013 24.8923 81.9484 24.8283 81.9034 24.751C81.8585 24.6738 81.8347 24.586 81.8347 24.4966V21.4507C81.8347 21.2687 81.9317 21.1018 82.0887 21.0118L84.7256 19.4918C84.8027 19.4471 84.8902 19.4234 84.9792 19.4234C85.0682 19.4234 85.1557 19.4471 85.2327 19.4918L87.8697 21.0118C87.947 21.0561 88.0113 21.12 88.0561 21.1971C88.1009 21.2742 88.1245 21.3616 88.1246 21.4507V23.8467C88.1241 23.9363 88.1473 24.0244 88.192 24.1021C88.2366 24.1798 88.301 24.2444 88.3786 24.2891C88.4562 24.3338 88.5444 24.3572 88.634 24.3568C88.7236 24.3563 88.8114 24.3321 88.8887 24.2867L93.9277 21.3548Z" fill="#A07250"/>
<path fill-rule="evenodd" clip-rule="evenodd" d="M63.8097 0.0625613C63.7322 0.0202199 63.6451 -0.00130552 63.5568 6.12584e-05C63.4685 0.00142804 63.3821 0.0256541 63.3059 0.0703738C63.2298 0.115093 63.1665 0.178741 63.1223 0.255188C63.0781 0.331635 63.0545 0.418351 63.0537 0.506653V13.4217C63.0535 13.484 63.037 13.5449 63.006 13.5989C62.9749 13.6529 62.9304 13.698 62.8767 13.7296C62.8225 13.7605 62.7612 13.7769 62.6987 13.7769C62.6363 13.7769 62.5749 13.7605 62.5207 13.7296L60.4127 12.5147C60.2584 12.4258 60.0833 12.379 59.9052 12.379C59.7271 12.379 59.5521 12.4258 59.3977 12.5147L50.9797 17.3726C50.825 17.4619 50.6966 17.5903 50.6072 17.7449C50.5179 17.8996 50.4708 18.0751 50.4707 18.2537V27.9727C50.4707 28.3357 50.6647 28.6706 50.9787 28.8536L59.3967 33.7147C59.7107 33.8967 60.0987 33.8967 60.4137 33.7147L68.8337 28.8536C68.988 28.764 69.1162 28.6356 69.2053 28.481C69.2945 28.3264 69.3415 28.1512 69.3417 27.9727V3.74567C69.3417 3.37767 69.1417 3.03773 68.8207 2.85773L63.8097 0.0625613ZM62.9017 24.9986C62.9807 24.9526 63.0287 24.8686 63.0287 24.7786L63.0297 21.4407C63.0296 21.3962 63.0179 21.3523 62.9958 21.3135C62.9738 21.2748 62.942 21.2424 62.9037 21.2195L60.0127 19.5516C59.9742 19.5285 59.9301 19.5164 59.8852 19.5164C59.8403 19.5164 59.7962 19.5285 59.7577 19.5516L56.8677 21.2195C56.7897 21.2655 56.7407 21.3507 56.7407 21.4407V24.7786C56.7408 24.8232 56.7526 24.867 56.7748 24.9056C56.7971 24.9442 56.8291 24.9762 56.8677 24.9986L59.7577 26.6646C59.7962 26.6872 59.8401 26.699 59.8847 26.699C59.9294 26.699 59.9732 26.6872 60.0117 26.6646L62.9017 24.9986Z" fill="#A07250"/>
<path d="M18.8757 17.9886C18.8757 17.6226 18.6837 17.2868 18.3677 17.1058L9.9527 12.2628C9.81137 12.1808 9.65198 12.1351 9.48871 12.1297H9.40167C9.23842 12.1352 9.07906 12.1809 8.93768 12.2628L0.521667 17.1058C0.366845 17.1954 0.238327 17.3241 0.148987 17.4791C0.0596468 17.6341 0.0126546 17.8097 0.0126953 17.9886L0.0307007 31.0286C0.0307007 31.2106 0.125668 31.3796 0.284668 31.4676C0.360801 31.5138 0.448135 31.5384 0.53717 31.5384C0.626206 31.5384 0.71354 31.5138 0.789673 31.4676L5.78967 28.6038C6.10567 28.4158 6.29871 28.0847 6.29871 27.7217V21.6297C6.29871 21.2657 6.49073 20.9306 6.80573 20.7486L8.93567 19.5228C9.08962 19.4323 9.26516 19.385 9.44373 19.3858C9.61773 19.3858 9.79568 19.4298 9.95068 19.5228L12.0787 20.7486C12.3937 20.9306 12.5877 21.2657 12.5877 21.6297V27.7217C12.5877 28.0847 12.7827 28.4178 13.0967 28.6038L18.0967 31.4676C18.1738 31.5116 18.2611 31.5347 18.3499 31.5345C18.4387 31.5343 18.5259 31.511 18.6028 31.4666C18.6797 31.4222 18.7436 31.3584 18.7881 31.2816C18.8327 31.2047 18.8563 31.1174 18.8567 31.0286L18.8757 17.9886Z" fill="#A07250"/>
<path d="M112.724 27.3626C109.249 27.3626 108.522 25.7677 108.522 24.4307C108.522 24.3699 108.546 24.3115 108.589 24.2686C108.633 24.2257 108.691 24.2017 108.752 24.2017H109.778C109.833 24.2015 109.886 24.2208 109.928 24.2564C109.969 24.292 109.997 24.3413 110.006 24.3956C110.16 25.4406 110.623 25.9676 112.724 25.9676C114.395 25.9676 115.107 25.5897 115.107 24.7017C115.107 24.1897 114.905 23.8107 112.307 23.5557C110.135 23.3407 108.792 22.8616 108.792 21.1226C108.792 19.5216 110.142 18.5657 112.404 18.5657C114.947 18.5657 116.205 19.4486 116.364 21.3426C116.366 21.3745 116.362 21.4066 116.352 21.4368C116.342 21.4671 116.325 21.4949 116.304 21.5186C116.282 21.5414 116.256 21.5595 116.227 21.5721C116.198 21.5846 116.167 21.5913 116.136 21.5916H115.105C115.053 21.5917 115.002 21.5741 114.962 21.5416C114.921 21.509 114.893 21.4635 114.882 21.4127C114.634 20.3127 114.034 19.9617 112.403 19.9617C110.578 19.9617 110.366 20.5985 110.366 21.0735C110.366 21.6505 110.616 21.8186 113.081 22.1446C115.52 22.4676 116.679 22.9237 116.679 24.6387C116.68 26.3717 115.238 27.3626 112.724 27.3626Z" fill="#DCA780"/>
<path d="M84.9296 20.8987C84.9594 20.8821 84.993 20.8734 85.0272 20.8734C85.0613 20.8734 85.0948 20.8821 85.1246 20.8987L86.7396 21.8318C86.7996 21.8668 86.8367 21.9318 86.8367 22.0008V23.8658C86.8367 23.9358 86.7996 23.9997 86.7396 24.0347L85.1246 24.9666C85.095 24.9838 85.0614 24.993 85.0272 24.993C84.9929 24.993 84.9592 24.9838 84.9296 24.9666L83.3157 24.0347C83.2859 24.0177 83.2611 23.9931 83.2438 23.9634C83.2266 23.9338 83.2176 23.9001 83.2177 23.8658V22.0008C83.2177 21.9318 83.2547 21.8668 83.3157 21.8318L84.9296 20.8987Z" fill="#DCA780"/>
</svg>

<svg xmlns="http://www.w3.org/2000/svg" width="120" height="34" fill="none"><path fill="#DCA780" d="M34.18 12.33a1.01 1.01 0 0 1 1.02 0l8.42 4.86c.31.18.5.52.5.88v9.72c0 .36-.19.7-.5.88l-8.42 4.86a1.02 1.02 0 0 1-1.02 0l-8.41-4.86a1.02 1.02 0 0 1-.5-.88v-9.72c0-.36.18-.7.5-.88l8.41-4.86ZM110.27 33.67c-.29 0-.58-.07-.83-.22l-2.65-1.57c-.4-.22-.2-.3-.07-.34.53-.19.63-.23 1.2-.55.05-.03.13-.02.2.02l2.03 1.2a.26.26 0 0 0 .24 0l7.94-4.58a.25.25 0 0 0 .09-.09.25.25 0 0 0 .03-.12v-9.16a.26.26 0 0 0-.12-.22l-7.94-4.58a.26.26 0 0 0-.24 0l-7.93 4.58a.26.26 0 0 0-.13.22v9.16c0 .09.05.17.13.21l2.17 1.26c1.18.59 1.9-.1 1.9-.8v-9.05c0-.13.1-.23.23-.23h1.01c.13 0 .23.1.23.23v9.05c0 1.57-.86 2.47-2.35 2.47-.46 0-.82 0-1.83-.5l-2.08-1.2a1.68 1.68 0 0 1-.83-1.44v-9.16c0-.6.32-1.15.83-1.45l7.94-4.58a1.74 1.74 0 0 1 1.67 0l7.93 4.58c.52.3.83.86.83 1.45v9.16a1.69 1.69 0 0 1-.83 1.45l-7.94 4.58c-.25.15-.54.22-.83.22Z"/><path fill="#A07250" d="M93.93 21.35c.31-.18.5-.51.5-.88v-2.35c0-.36-.19-.7-.5-.88l-8.37-4.85a1.02 1.02 0 0 0-1.02 0l-8.41 4.85a1.02 1.02 0 0 0-.5.88v9.72c0 .36.19.7.5.88l8.37 4.77c.3.17.68.18 1 0l5.05-2.8a.5.5 0 0 0 0-.9l-8.46-4.85a.5.5 0 0 1-.26-.44v-3.05c0-.18.1-.35.26-.44l2.64-1.52a.5.5 0 0 1 .5 0l2.64 1.52a.5.5 0 0 1 .25.44v2.4a.5.5 0 0 0 .77.44l5.04-2.94Z"/><path fill="#A07250" fill-rule="evenodd" d="M63.81.06a.51.51 0 0 0-.76.45v12.91a.36.36 0 0 1-.35.36.36.36 0 0 1-.18-.05l-2.1-1.22a1.02 1.02 0 0 0-1.02 0l-8.42 4.86a1.02 1.02 0 0 0-.5.88v9.72c0 .37.18.7.5.88l8.42 4.86c.31.19.7.19 1.01 0l8.42-4.86a1.02 1.02 0 0 0 .51-.88V3.75c0-.37-.2-.71-.52-.9L63.81.07ZM62.91 25a.25.25 0 0 0 .12-.22v-3.34a.26.26 0 0 0-.13-.22l-2.89-1.67a.25.25 0 0 0-.25 0l-2.9 1.67a.26.26 0 0 0-.12.22v3.34a.26.26 0 0 0 .13.22l2.89 1.66a.25.25 0 0 0 .25 0l2.9-1.66Z" clip-rule="evenodd"/><path fill="#A07250" d="M18.88 17.99c0-.37-.2-.7-.51-.88l-8.42-4.85a.99.99 0 0 0-.46-.13H9.4a1 1 0 0 0-.46.13L.52 17.11a1.02 1.02 0 0 0-.5.88l.01 13.04c0 .18.1.35.25.44a.49.49 0 0 0 .51 0l5-2.87c.32-.18.5-.52.5-.88v-6.09c0-.36.2-.7.52-.88l2.13-1.23a1 1 0 0 1 1.01 0l2.13 1.23c.31.18.5.52.5.88v6.1c0 .35.2.69.52.87l5 2.87a.5.5 0 0 0 .76-.44l.02-13.04Z"/><path fill="#DCA780" d="M112.72 27.36c-3.47 0-4.2-1.6-4.2-2.93a.23.23 0 0 1 .23-.23h1.03a.23.23 0 0 1 .23.2c.15 1.04.61 1.57 2.71 1.57 1.67 0 2.39-.38 2.39-1.27 0-.51-.2-.89-2.8-1.14-2.17-.22-3.52-.7-3.52-2.44 0-1.6 1.35-2.55 3.61-2.55 2.55 0 3.8.88 3.96 2.77v.1a.24.24 0 0 1-.06.08.24.24 0 0 1-.16.07h-1.03a.23.23 0 0 1-.23-.18c-.25-1.1-.85-1.45-2.48-1.45-1.82 0-2.03.64-2.03 1.11 0 .58.25.75 2.71 1.07 2.44.33 3.6.78 3.6 2.5 0 1.73-1.44 2.72-3.96 2.72ZM84.93 20.9a.2.2 0 0 1 .2 0l1.61.93c.06.04.1.1.1.17v1.87a.2.2 0 0 1-.1.16l-1.62.94a.2.2 0 0 1-.19 0l-1.61-.94a.2.2 0 0 1-.1-.16V22a.2.2 0 0 1 .1-.17l1.61-.93Z"/></svg>
